X: 3
T: McGovern's Favourite
R: reel
M: 4/4
L: 1/8
K: Ador
B|~A3G GEDE|G2Bd edBd|eaaf gedB|AcBG AGEG|~A3G GEDE|G2Bd edBd|egfa gedB|AcBG A3:|z|a2ab agef|gedB G2Bd|eaaf gedB|AcBG AGE2|~a3b agef|gedB G2Bd|egfa gedB|AcBG A3z|a2ab agef|gedB G2Bd|eaaf gedB|AcBG AGEG|~A3G GEDE|G2Bd edBd|egfa gedB|AcBG A3||


Tune 2430	Setting 26555

